X: 130
T:The Frost is all Over
M:6/8
L:1/8
Z:abc by Bruce Osborne - bosborne@kos.net
K:D
A|def edB|ADD EDD|DFA AFA|Bee edB|!
def edB|ADD EDD|DFA AFA|Bdd d2:|!
|:g|fdf afd|gfg bag|fdf afd|gfg e2 g|!
fdf afd|gfg bag|fga efg|fdd d2:|!
